svgs/solid/file-plus-minus.svg

<svg xmlns="http://www.w3.org/2000/svg" viewBox="0 0 384 512"><!-- Font Awesome Pro 6.0.0-alpha2 by @fontawesome - https://fontawesome.com License - https://fontawesome.com/license (Commercial License) --><path d="M256 0V128H384L256 0ZM224 128V0H48C21.492 0 0 21.492 0 48V464C0 490.508 21.492 512 48 512H336C362.508 512 384 490.508 384 464V160H256C238.328 160 224 145.672 224 128ZM256 432H128C119.156 432 112 424.844 112 416S119.156 400 128 400H256C264.844 400 272 407.156 272 416S264.844 432 256 432ZM272 272C272 280.844 264.844 288 256 288H208V336C208 344.844 200.844 352 192 352S176 344.844 176 336V288H128C119.156 288 112 280.844 112 272S119.156 256 128 256H176V208C176 199.156 183.156 192 192 192S208 199.156 208 208V256H256C264.844 256 272 263.156 272 272Z"/></svg>

<svg xmlns="http://www.w3.org/2000/svg" viewBox="0 0 384 512"><!--! Font Awesome Pro 6.3.0 by @fontawesome - https://fontawesome.com License - https://fontawesome.com/license (Commercial License) Copyright 2023 Fonticons, Inc. --><path d="M64 0C28.7 0 0 28.7 0 64V448c0 35.3 28.7 64 64 64H320c35.3 0 64-28.7 64-64V160H256c-17.7 0-32-14.3-32-32V0H64zM256 0V128H384L256 0zM208 208v48h48c8.8 0 16 7.2 16 16s-7.2 16-16 16H208v48c0 8.8-7.2 16-16 16s-16-7.2-16-16V288H128c-8.8 0-16-7.2-16-16s7.2-16 16-16h48V208c0-8.8 7.2-16 16-16s16 7.2 16 16zM128 384H256c8.8 0 16 7.2 16 16s-7.2 16-16 16H128c-8.8 0-16-7.2-16-16s7.2-16 16-16z"/></svg>
